SVG_Azure_Grouped/IoT/Certificate.svg

<?xml version="1.0" encoding="UTF-8" standalone="no"?>
<!-- Generated by Microsoft Visio, SVG Export Certificate.svg Page-1 -->

<svg
   xmlns:dc="http://purl.org/dc/elements/1.1/"
   xmlns:cc="http://creativecommons.org/ns#"
   xmlns:rdf="http://www.w3.org/1999/02/22-rdf-syntax-ns#"
   xmlns:svg="http://www.w3.org/2000/svg"
   xmlns="http://www.w3.org/2000/svg"
   xmlns:sodipodi="http://sodipodi.sourceforge.net/DTD/sodipodi-0.dtd"
   xmlns:inkscape="http://www.inkscape.org/namespaces/inkscape"
   width="0.73910815in"
   height="0.78371209in"
   viewBox="0 0 53.215755 56.42741"
   xml:space="preserve"
   class="st3"
   version="1.1"
   id="svg42"
   sodipodi:docname="Certificate.svg"
   style="font-size:12px;overflow:visible;color-interpolation-filters:sRGB;fill:none;fill-rule:evenodd;stroke-linecap:square;stroke-miterlimit:3"
   inkscape:version="0.92.5 (2060ec1f9f, 2020-04-08)"><metadata
   id="metadata48"><rdf:RDF><cc:Work
       rdf:about=""><dc:format>image/svg+xml</dc:format><dc:type
         rdf:resource="http://purl.org/dc/dcmitype/StillImage" /></cc:Work></rdf:RDF></metadata><defs
   id="defs46" /><sodipodi:namedview
   pagecolor="#ffffff"
   bordercolor="#666666"
   borderopacity="1"
   objecttolerance="10"
   gridtolerance="10"
   guidetolerance="10"
   inkscape:pageopacity="0"
   inkscape:pageshadow="2"
   inkscape:window-width="640"
   inkscape:window-height="480"
   id="namedview44"
   showgrid="false"
   inkscape:zoom="1.8365233"
   inkscape:cx="35.045406"
   inkscape:cy="18.54093"
   inkscape:window-x="0"
   inkscape:window-y="0"
   inkscape:window-maximized="0"
   inkscape:current-layer="svg42" />
	<style
   type="text/css"
   id="style2">
	<![CDATA[
		.st1 {fill:#0072c6;stroke:none;stroke-linecap:butt;stroke-width:5.32174}
		.st2 {fill:#a0a1a2;stroke:none;stroke-linecap:butt;stroke-width:5.32174}
		.st3 {fill:none;fill-rule:evenodd;font-size:12px;overflow:visible;stroke-linecap:square;stroke-miterlimit:3}
	]]>
	</style>

	<g
   id="g40"
   transform="translate(-6.0309292,-5.66732)">
		<title
   id="title4">Page-1</title>
		<g
   id="group20679-1"
   transform="translate(5.38583,-34.0157)">
			<title
   id="title6">Certificate.20679</title>
			<g
   id="group20680-2">
				<title
   id="title8">Sheet.20680</title>
				<g
   id="group20681-3"
   transform="translate(9.37312,-9.45699)">
					<title
   id="title10">Sheet.20681</title>
					<g
   id="shape20682-4"
   transform="translate(10.0178,-3.91999)">
						<title
   id="title12">Sheet.20682</title>
						<path
   d="M 34.32,96.38 H 4.07 c 0,-2.31 -0.05,-4.61 0.05,-6.86 0,-0.3 0.39,-0.69 0.69,-0.88 C 8.98,85.79 10.76,81.92 9.62,77.02 8.48,72.22 5.11,69.57 0.25,68.74 0.2,68.74 0.15,68.69 0,68.64 V 53.16 c 0.69,-0.05 1.24,-0.1 1.83,-0.1 7.74,0 15.53,0 23.26,0.05 0.8,0 1.84,0.44 2.38,0.98 2.14,2.11 4.12,4.26 6.1,6.52 0.45,0.49 0.85,1.17 0.85,1.81 0.05,11.07 0.05,22.2 0.05,33.27 0,0.2 -0.05,0.39 -0.15,0.69 z"
   class="st1"
   id="path14"
   inkscape:connector-curvature="0"
   style="fill:#0072c6;stroke:none;stroke-width:5.32174015;stroke-linecap:butt" />
					</g>
					<g
   id="shape20683-6">
						<title
   id="title17">Sheet.20683</title>
						<path
   d="M 9.17,84.52 C 3.97,84.52 0,80.65 0,75.55 c 0,-5.04 4.07,-9.06 9.17,-9.06 5.06,0 9.23,4.06 9.23,9.06 -0.05,5.05 -4.07,8.97 -9.23,8.97 z m 6.01,-8.92 c 0,-3.28 -2.68,-5.98 -6.01,-5.98 -3.32,0 -6,2.65 -6.05,5.98 0,3.28 2.68,5.98 6.01,6.03 3.32,-0.05 6.05,-2.75 6.05,-6.03 z M 5.95,96.38 V 86.19 H 12.3 V 96.33 C 11.56,95.35 10.91,94.71 10.46,93.98 9.62,92.7 8.88,92.56 7.98,93.93 7.44,94.61 6.79,95.35 5.95,96.38 Z"
   class="st1"
   id="path19"
   inkscape:connector-curvature="0"
   style="fill:#0072c6;stroke:none;stroke-width:5.32174015;stroke-linecap:butt" />
					</g>
					<g
   id="shape20684-8"
   transform="translate(4.71136,-16.415)">
						<title
   id="title22">Sheet.20684</title>
						<path
   d="m 4.36,96.33 c 2.43,0.05 4.37,-1.86 4.42,-4.22 0.05,-2.45 -1.94,-4.45 -4.42,-4.45 -2.38,0 -4.36,2 -4.36,4.36 0.05,2.35 1.98,4.26 4.36,4.31 z"
   class="st1"
   id="path24"
   inkscape:connector-curvature="0"
   style="fill:#0072c6;stroke:none;stroke-width:5.32174015;stroke-linecap:butt" />
					</g>
					<g
   id="shape20685-10"
   transform="translate(4.71136,-16.415)">
						<title
   id="title27">Sheet.20685</title>
						<path
   d="M 4.36,96.33 C 1.98,96.28 0,94.37 0,91.97 c 0,-2.35 1.98,-4.31 4.36,-4.36 2.43,0 4.47,2.01 4.42,4.46 0,2.45 -1.99,4.31 -4.42,4.26 z"
   class="st1"
   id="path29"
   inkscape:connector-curvature="0"
   style="fill:#0072c6;stroke:none;stroke-width:5.32174015;stroke-linecap:butt" />
					</g>
				</g>
				<g
   id="shape20686-12">
					<title
   id="title33">Sheet.20686</title>
					<path
   d="M 10.27,83.15 C 5.8,75.8 8.68,68.59 13.44,65.21 c 5.26,-3.77 12.45,-3.23 17.06,1.33 4.66,4.6 5.16,11.85 1.19,17.1 -3.37,4.41 -10.61,7.4 -17.85,3.04 -0.8,0.73 -1.64,1.47 -2.43,2.25 l -6.1,6.32 C 4.22,96.38 3.67,96.38 2.58,95.35 0,92.95 0,92.85 2.58,90.45 Z m 10.91,2.4 c 5.5,0 9.87,-4.31 9.87,-9.75 0,-5.44 -4.37,-9.8 -9.87,-9.8 -5.56,0 -9.97,4.36 -9.92,9.85 0.05,5.39 4.41,9.7 9.92,9.7 z"
   class="st2"
   id="path35"
   inkscape:connector-curvature="0"
   style="fill:#a0a1a2;stroke:none;stroke-width:5.32174015;stroke-linecap:butt" />
				</g>
			</g>
		</g>
	</g>
</svg>

<?xml version="1.0" encoding="UTF-8" standalone="no"?>
<!DOCTYPE svg PUBLIC "-//W3C//DTD SVG 1.1//EN" "http://www.w3.org/Graphics/SVG/1.1/DTD/svg11.dtd">
<!-- Generated by Microsoft Visio, SVG Export Certificate.svg Page-1 -->
<svg xmlns="http://www.w3.org/2000/svg" xmlns:xlink="http://www.w3.org/1999/xlink" xmlns:ev="http://www.w3.org/2001/xml-events"
		width="0.897638in" height="1.33858in" viewBox="0 0 64.6299 96.378" xml:space="preserve" color-interpolation-filters="sRGB"
		class="st3">
	<style type="text/css">
	<![CDATA[
		.st1 {fill:#0072c6;stroke:none;stroke-linecap:butt;stroke-width:5.32174}
		.st2 {fill:#a0a1a2;stroke:none;stroke-linecap:butt;stroke-width:5.32174}
		.st3 {fill:none;fill-rule:evenodd;font-size:12px;overflow:visible;stroke-linecap:square;stroke-miterlimit:3}
	]]>
	</style>

	<g>
		<title>Page-1</title>
		<g id="group20224-1" transform="translate(5.38583,-34.0157)">
			<title>Certificate.20224</title>
			<g id="group20225-2">
				<title>Sheet.20225</title>
				<g id="group20226-3" transform="translate(9.37312,-9.45699)">
					<title>Sheet.20226</title>
					<g id="shape20227-4" transform="translate(10.0178,-3.91999)">
						<title>Sheet.20227</title>
						<path d="M34.32 96.38 L4.07 96.38 C4.07 94.07 4.02 91.77 4.12 89.52 C4.12 89.22 4.51 88.83 4.81 88.64 C8.98
									 85.79 10.76 81.92 9.62 77.02 C8.48 72.22 5.11 69.57 0.25 68.74 C0.2 68.74 0.15 68.69 0 68.64
									 L0 53.16 C0.69 53.11 1.24 53.06 1.83 53.06 C9.57 53.06 17.36 53.06 25.09 53.11 C25.89 53.11
									 26.93 53.55 27.47 54.09 C29.61 56.2 31.59 58.35 33.57 60.61 C34.02 61.1 34.42 61.78 34.42 62.42
									 C34.47 73.49 34.47 84.62 34.47 95.69 C34.47 95.89 34.42 96.08 34.32 96.38 Z" class="st1"/>
					</g>
					<g id="shape20228-6">
						<title>Sheet.20228</title>
						<path d="M9.17 84.52 C3.97 84.52 0 80.65 0 75.55 C0 70.51 4.07 66.49 9.17 66.49 C14.23 66.49 18.4 70.55 18.4
									 75.55 C18.35 80.6 14.33 84.52 9.17 84.52 ZM15.18 75.6 C15.18 72.32 12.5 69.62 9.17 69.62 C5.85
									 69.62 3.17 72.27 3.12 75.6 C3.12 78.88 5.8 81.58 9.13 81.63 C12.45 81.58 15.18 78.88 15.18 75.6
									 ZM5.95 96.38 L5.95 86.19 L12.3 86.19 L12.3 96.33 C11.56 95.35 10.91 94.71 10.46 93.98 C9.62
									 92.7 8.88 92.56 7.98 93.93 C7.44 94.61 6.79 95.35 5.95 96.38 Z" class="st1"/>
					</g>
					<g id="shape20229-8" transform="translate(4.71136,-16.415)">
						<title>Sheet.20229</title>
						<path d="M4.36 96.33 C6.79 96.38 8.73 94.47 8.78 92.11 C8.83 89.66 6.84 87.66 4.36 87.66 C1.98 87.66 0 89.66
									 0 92.02 C0.05 94.37 1.98 96.28 4.36 96.33 Z" class="st1"/>
					</g>
					<g id="shape20230-10" transform="translate(4.71136,-16.415)">
						<title>Sheet.20230</title>
						<path d="M4.36 96.33 C1.98 96.28 0 94.37 0 91.97 C0 89.62 1.98 87.66 4.36 87.61 C6.79 87.61 8.83 89.62 8.78
									 92.07 C8.78 94.52 6.79 96.38 4.36 96.33 Z" class="st1"/>
					</g>
				</g>
				<g id="shape20231-12">
					<title>Sheet.20231</title>
					<path d="M10.27 83.15 C5.8 75.8 8.68 68.59 13.44 65.21 C18.7 61.44 25.89 61.98 30.5 66.54 C35.16 71.14 35.66
								 78.39 31.69 83.64 C28.32 88.05 21.08 91.04 13.84 86.68 C13.04 87.41 12.2 88.15 11.41 88.93 L5.31
								 95.25 C4.22 96.38 3.67 96.38 2.58 95.35 C0 92.95 0 92.85 2.58 90.45 L10.27 83.15 ZM21.18 85.55 C26.68
								 85.55 31.05 81.24 31.05 75.8 C31.05 70.36 26.68 66 21.18 66 C15.62 66 11.21 70.36 11.26 75.85 C11.31
								 81.24 15.67 85.55 21.18 85.55 Z" class="st2"/>
				</g>
			</g>
		</g>
	</g>
</svg>
